X:490
T:Big Leap, The
T:Larry Redican's
R:reel
C:Larry Redican (1908-1975)
Z:id:hn-reel-490
M:C|
K:G
G2BG DGBd|g2fg edBA|G2BG DGBG|ABAG FDEF|
GEED EDB,A,|G,gfg edBA|G2BG DGBG|AGFA G4:|
|:dggf gedg|eaag ageg|fd~d2 bdaf|dfaf gfed|
BG~G2 EGDE|Ggfg edBA|G2BG DGBG|AGFA G4:|
